svg/filled/milk.svg

<svg width="24" height="24" viewBox="0 0 24 24" fill="none" xmlns="http://www.w3.org/2000/svg">
<path d="M14.2783 4.9766C14.1097 4.67586 13.7905 4.5 13.4458 4.5H10.5884C10.2252 4.5 9.89199 4.69479 9.72662 5.01812C9.59716 5.27124 9.43068 5.60651 9.24711 6H14.8156C14.6097 5.58149 14.4218 5.2324 14.2783 4.9766Z" fill="black"/>
<path fill-rule="evenodd" clip-rule="evenodd" d="M7.5 12C7.5 10.458 8.16046 8.51979 8.80244 7H15.2771C15.8929 8.42909 16.5 10.2753 16.5 12V19C16.5 20.1046 15.6046 21 14.5 21H9.5C8.39543 21 7.5 20.1046 7.5 19V12ZM9 12C8.72386 12 8.5 12.2239 8.5 12.5V18.5C8.5 18.7761 8.72386 19 9 19C9.27614 19 9.5 18.7761 9.5 18.5V12.5C9.5 12.2239 9.27614 12 9 12Z" fill="black"/>
<rect x="8.5" y="3" width="7" height="3" rx="1" fill="black"/>
</svg>

<svg xmlns="http://www.w3.org/2000/svg" viewBox="0 0 24 24" fill="currentColor">
  <path d="M14.278 4.977a.946.946 0 00-.832-.477h-2.858a.96.96 0 00-.861.518c-.13.253-.296.589-.48.982h5.569a21.574 21.574 0 00-.538-1.023z"/>
  <path fill-rule="evenodd" d="M7.5 12c0-1.542.66-3.48 1.302-5h6.475c.616 1.43 1.223 3.275 1.223 5v7a2 2 0 01-2 2h-5a2 2 0 01-2-2v-7zM9 12a.5.5 0 00-.5.5v6a.5.5 0 001 0v-6A.5.5 0 009 12z" clip-rule="evenodd"/>
  <rect width="7" height="3" x="8.5" y="3" rx="1"/>
</svg>
